images/arrow.svg

<svg width="36" height="23" viewBox="0 0 36 23" fill="none" xmlns="http://www.w3.org/2000/svg">
<path d="M35.0577 11.992C35.6388 11.4 35.6312 10.4503 35.0408 9.87079L25.4194 0.427943C24.829 -0.151517 23.8793 -0.14129 23.2982 0.450785C22.7171 1.04286 22.7247 1.99258 23.3151 2.57204L31.8674 10.9657L23.4502 19.5421C22.8691 20.1341 22.8767 21.0839 23.4671 21.6633C24.0575 22.2428 25.0072 22.2325 25.5883 21.6405L35.0577 11.992ZM0.0119629 11.3087L0.0239034 12.8087L34.0006 12.4428L33.9886 10.9428L33.9767 9.44289L2.23485e-05 9.80876L0.0119629 11.3087Z" fill="white"/>
</svg>

<svg xmlns="http://www.w3.org/2000/svg" width="36" height="23" fill="none"><path fill="#fff" d="M35.058 11.992a1.5 1.5 0 0 0-.017-2.121L25.419.428A1.5 1.5 0 0 0 23.3.45a1.5 1.5 0 0 0 .016 2.121l8.552 8.394-8.417 8.576a1.5 1.5 0 0 0 .017 2.121 1.5 1.5 0 0 0 2.121-.023l9.47-9.648ZM.012 11.309l.012 1.5L34 12.443l-.012-1.5-.012-1.5L0 9.809l.012 1.5Z"/></svg>
